packages/components/bolt-icons/src/svgs/utility/lock.svg

<?xml version="1.0" encoding="UTF-8" standalone="no"?>
<svg width="24px" height="24px" viewBox="0 0 24 24" version="1.1" xmlns="http://www.w3.org/2000/svg" xmlns:xlink="http://www.w3.org/1999/xlink">
    <!-- Generator: Sketch 46.2 (44496) - http://www.bohemiancoding.com/sketch -->
    <title>Icon/utility/Indigo/24px/Lock</title>
    <desc>Created with Sketch.</desc>
    <defs></defs>
    <g id="Symbols" stroke="none" stroke-width="1" fill="none" fill-rule="evenodd">
        <g id="Icon/utility/Indigo/24px/Lock">
            <rect id="Rectangle-6" x="0" y="0" width="24" height="24"></rect>
            <path d="M20,20 C20,20.55 19.55,21 19,21 L5,21 C4.45,21 4,20.55 4,20 L4,13 C4,12.45 4.45,12 5,12 L19,12 C19.55,12 20,12.45 20,13 L20,20 Z M8,7 C8,4.794 9.794,3 12,3 C14.206,3 16,4.794 16,7 L16,10 L8,10 L8,7 Z M19,10 L18,10 L18,7 C18,3.694 15.306,1 12,1 C8.694,1 6,3.694 6,7 L6,10 L5,10 C3.344,10 2,11.344 2,13 L2,20 C2,21.656 3.344,23 5,23 L19,23 C20.656,23 22,21.656 22,20 L22,13 C22,11.344 20.656,10 19,10 L19,10 Z" id="Lock" fill="#1F2555"></path>
        </g>
    </g>
</svg>

<?xml version="1.0" encoding="utf-8"?>
<!-- Generator: Adobe Illustrator 24.0.3, SVG Export Plug-In . SVG Version: 6.00 Build 0)  -->
<svg version="1.1" id="Layer_1" xmlns="http://www.w3.org/2000/svg" xmlns:xlink="http://www.w3.org/1999/xlink" x="0px" y="0px"
	 viewBox="0 0 24 24" enable-background="new 0 0 24 24" xml:space="preserve">
<path id="Lock" fill-rule="evenodd" clip-rule="evenodd" d="M20,20c0,0.5-0.5,1-1,1H5c-0.6,0-1-0.5-1-1v-7c0-0.6,0.4-1,1-1h14
	c0.5,0,1,0.4,1,1V20z M8,7c0-2.2,1.8-4,4-4s4,1.8,4,4v3H8V7z M19,10h-1V7c0-3.3-2.7-6-6-6S6,3.7,6,7v3H5c-1.7,0-3,1.3-3,3v7
	c0,1.7,1.3,3,3,3h14c1.7,0,3-1.3,3-3v-7C22,11.3,20.7,10,19,10L19,10z"/>
</svg>
